!!!!SEGMENT: Ric1003a-Missa_Veni_sponsa_Christi-Kyrie
!!!id: Ric1003a
!!!AGN: Mass; Kyrie
!!!voices: 4
!!!OPR: Missa Veni sponsa Christi
!!!COM: Jean Richafort
!!!OTL: Kyrie
**kern	**kern	**kern	**kern
*part4	*part3	*part2	*part1
*staff4	*staff3	*staff2	*staff1
*I"Bassus	*I"Tenor	*I"Altus	*I"Superius
*I'B.	*I'T.	*I'A.	*I'S.
*clefF4	*clefGv2	*clefGv2	*clefG2
*k[b-]	*k[b-]	*k[b-]	*k[b-]
*F:	*F:	*F:	*F:
*M2/1	*M2/1	*M2/1	*M2/1
*met(C|)	*met(C|)	*met(C|)	*met(C|)
=1	=1	=1	=1
!!section: Kyrie I
!!!OMD: Kyrie I
0r	0r	0r	0cc
=2	=2	=2	=2
0r	0r	0r	1a
.	.	.	1cc
=3	=3	=3	=3
0r	0r	0r	1.dd
.	.	.	2cc
=4	=4	=4	=4
0r	0r	0f	1cc
.	.	.	2r
.	.	.	2cc
=5	=5	=5	=5
0r	0r	1d	2dd
.	.	.	2.ff
.	.	1f	.
.	.	.	4ee
.	.	.	[2dd
=6	=6	=6	=6
0r	0r	1.g	4dd]
.	.	.	4cc
.	.	.	4b-y
.	.	.	4a
.	.	.	2b-y
.	.	2f	2cc
=7	=7	=7	=7
0F	0r	1f	[0a
.	.	2r	.
.	.	2c	.
=8	=8	=8	=8
1D	0r	2d	0a]
.	.	2.f	.
1F	.	.	.
.	.	4e	.
.	.	[2d	.
=9	=9	=9	=9
1.G	0r	4d]	0r
.	.	4c	.
.	.	4B-y	.
.	.	4A	.
.	.	2B-y	.
2F	.	2c	.
=10	=10	=10	=10
[0F	0c	0A	2r
.	.	.	2.f
.	.	.	4g
.	.	.	2a
=11	=11	=11	=11
0F]	1A	2r	2f
.	.	2.f	2.a
.	1c	.	.
.	.	4g	4b-y
.	.	2a	2cc
=12	=12	=12	=12
0r	1.d	2f	2a
.	.	2a	1f
.	.	4a	.
.	.	4g	.
.	2c	2e	2g
=13	=13	=13	=13
0F	1c	2r	[0a
.	.	2.f	.
.	2r	.	.
.	.	4g	.
.	2c	2a	.
=14	=14	=14	=14
1D	2d	2f	1a]
.	2.f	2.d	.
1F	.	.	2r
.	4e	4e	.
.	[2d	2f	[2a
=15	=15	=15	=15
1.G	4d]	1B-y	2a]
.	4c	.	.
.	4B-y	.	4g
.	4A	.	4f
.	2B-y	1r	2g
2F	2c	.	[2a
=16	=16	=16	=16
1F	2.A	0r	4a]
.	.	.	4b-y
.	.	.	2cc
.	4B-y	.	.
2r	4c	.	1a
.	4A	.	.
2F	[2d	.	.
=17	=17	=17	=17
2G	2d]	0r	2.b-y
2.B-y	2.G	.	.
.	.	.	4cc
.	.	.	1dd
4A	4A	.	.
2G	4B-y	.	.
.	4G	.	.
=18	=18	=18	=18
4G	4B-y	0r	0r
4F	4c	.	.
4E	2.d	.	.
4D	.	.	.
2E	.	.	.
.	4c	.	.
2F	[2c	.	.
=19	=19	=19	=19
1D	2c]	1r	0r
.	2BnXi	.	.
1C	[1c	2r	.
.	.	[2g	.
=20	=20	=20	=20
2r	0c]	2g]	1r
1c	.	2e	.
.	.	2g	2r
2A	.	2a	[2cc
=21	=21	=21	=21
2c	0r	2g	2cc]
2d	.	2f	2a
2c	.	2r	2cc
2BnXi	.	[2g	2dd
=22	=22	=22	=22
1c	2r	2g]	1cc
.	1c	2e	.
2r	.	2g	1cc
[2F	2A	2a	.
=23	=23	=23	=23
2F]	2.c	1g	1r
4E	.	.	.
4D	4d	.	.
2E	1c	1g	2r
2C	.	.	[2cc
=24	=24	=24	=24
2.F	1c	2r	2cc]
.	.	1f	2a
4G	.	.	.
2A	1r	.	2cc
[2F	.	2d	2dd
=25	=25	=25	=25
2F]	2r	2f	1cc
2E	1c	2g	.
[1F	.	[1f	1cc
.	2A	.	.
=26	=26	=26	=26
2F]	2c	2f]	2r
2BB-y	2d	2d	2.ff
1C	1c	1g	.
.	.	.	4ee
.	.	.	2ee
=27	=27	=27	=27
[0F	[0cl	2f	4dd
.	.	.	4cc
.	.	1a	1cc
.	.	2g	2b-y
=28	=28	=28	=28
0F]	0c_	2.f	2a
.	.	.	2g
.	.	4e	.
.	.	1f	2a
.	.	.	4g
.	.	.	4f
=29	=29	=29	=29
0Cl	0c]	0el	0gl
=30||	=30||	=30||	=30||
*M2/1	*M2/1	*M2/1	*M2/1
*met(C|)	*met(C|)	*met(C|)	*met(C|)
!!section: Christe
!!!OMD: Christe
0r	1c	1r	0r
.	2A	1f	.
.	[2B-y	.	.
=31	=31	=31	=31
0r	2B-]	2d	2r
.	2A	2.f	1cc
.	2F	.	.
.	.	4e	.
.	2A	2c	2a
=32	=32	=32	=32
0r	1G	2d	1b-y
.	.	2B-y	.
.	[1F	1c	1a
=33	=33	=33	=33
1r	1F]	2r	2g
.	.	1f	2a
1c	1r	.	1g
.	.	2e	.
=34	=34	=34	=34
2A	1f	2c	1f
1B-y	.	1d	.
.	2d	.	1r
2A	[2f	2c	.
=35	=35	=35	=35
2F	4f]	2d	0r
.	4e	.	.
2A	2c	1f	.
1G	2d	.	.
.	2B-y	2e	.
=36	=36	=36	=36
1F	1c	0f	1cc
1r	1d	.	2a
.	.	.	[2b-y
=37	=37	=37	=37
1F	1c	2r	2b-]
.	.	2.f	2a
2D	1r	.	2f
.	.	4e	.
[2F	.	[2c	2a
=38	=38	=38	=38
4F]	1c	4c]	1g
4E	.	4d	.
2C	.	2e	.
2D	2A	2f	1f
2BB-y	[2B-y	2d	.
=39	=39	=39	=39
1C	2B-]	4e	0r
.	.	4d	.
.	2A	4c	.
.	.	4B-y	.
2D	2F	1A	.
[2F	2A	.	.
=40	=40	=40	=40
2F]	1G	0r	2r
2E	.	.	1b-y
1F	2F	.	.
.	2c	.	2a
=41	=41	=41	=41
2D	1d	2r	1b-y
2BB-y	.	1f	.
1F	2c	.	1a
.	[2f	2f	.
=42	=42	=42	=42
2BB-y	2f]	2.d	2r
1B-y	2f	.	2f
.	.	4e	.
.	2d	2f	[1b-y
2B-y	2f	2d	.
=43	=43	=43	=43
2G	4e	1g	2b-]
.	4d	.	.
2B-y	1d	.	2g
1A	.	1e	1a
.	2c#i	.	.
=44	=44	=44	=44
[0D	0d	1f	0a
.	.	2r	.
.	.	[2f	.
=45	=45	=45	=45
1D]	1r	2f]	2r
.	.	2f	1ff
1r	2r	2.d	.
.	[2B-y	.	2ff
.	.	4e	.
=46	=46	=46	=46
0r	2B-]	2f	2dd
.	2B-y	2d	2ff
.	2G	4g	4ee
.	.	4f	4dd
.	2B-y	4e	[2dd
.	.	4d	.
=47	=47	=47	=47
1r	1A	1e	2dd]
.	.	.	2cc#i
2r	2B-y	[1d	[1dd
2B-y	[2G	.	.
=48	=48	=48	=48
2B-y	4G]	1d]	0dd_
.	4A	.	.
2G	4B-y	.	.
.	4c	.	.
2.B-y	4d	1r	.
.	4e	.	.
.	[2f	.	.
4A	.	.	.
=49	=49	=49	=49
2F	4f]	0r	1dd]
.	4e	.	.
2G	1d	.	.
1A	.	.	2r
.	2c	.	2ff
=50	=50	=50	=50
1B-y	0d	1r	2ff
.	.	.	2dd
2r	.	2r	2.ff
2B-y	.	2f	.
.	.	.	4ee
=51	=51	=51	=51
2A	0r	2f	2cc
2.B-y	.	2d	2.dd
.	.	2.f	.
4A	.	.	4cc
2F	.	.	2a
.	.	4e	.
=52	=52	=52	=52
2A	1r	2c	2cc
2.G	.	2.d	2.b-y
.	2r	.	.
4A	.	4c	4a
[2F	[2f	2A	[2a
=53	=53	=53	=53
4F]	2f]	2c	2a]
4D	.	.	.
2G	2d	2.B-y	2g
2F	1f	.	[1a
.	.	4A	.
2D	.	[2d	.
=54	=54	=54	=54
1A	1e	2d]	1a]
.	.	2c#i	.
2D	2r	2d	2r
[2G	[2d	[2B-y	[2b-y
=55	=55	=55	=55
2G]	4d]	2B-]	2b-]
.	4c	.	.
2C	2.c	2c	2g
1G	.	2d	1b-y
.	4B-y	.	.
.	4B-y	2e	.
.	4A	.	.
=56	=56	=56	=56
1F	1c	[0fl	[0al
2.D	1d	.	.
4E	.	.	.
=57	=57	=57	=57
0Fl	0cl	0f]	0a]
=58||	=58||	=58||	=58||
*M2/1	*M2/1	*M2/1	*M2/1
*met(C|)	*met(C|)	*met(C|)	*met(C|)
!!section: Kyrie II
!!!OMD: Kyrie II
0r	0r	0r	1.g
.	.	.	2f
=59	=59	=59	=59
1.G	0r	0r	2g
.	.	.	1b-y
2F	.	.	2a
=60	=60	=60	=60
2G	0r	1.d	1g
1B-y	.	.	.
.	.	.	1f
2A	.	2c	.
=61	=61	=61	=61
2G	0r	2d	1r
2F	.	1f	.
1c	.	.	[1g
.	.	2e	.
=62	=62	=62	=62
2B-y	1r	2d	2g]
2A	.	2c	2f
[1G	[1d	1r	2g
.	.	.	[2b-y
=63	=63	=63	=63
2G]	2d]	1r	2b-]
2A	2c	.	2a
1B-y	2d	2r	2g
.	[2f	[2d	2f
=64	=64	=64	=64
1A	2f]	2d]	1.a
.	2e	2c	.
1r	1d	1f	.
.	.	.	2b-y
=65	=65	=65	=65
2r	1c	2g	1cc
1F	.	1a	.
.	2A	.	1r
2G	2B-y	2g	.
=66	=66	=66	=66
2.A	1c	2f	0r
.	.	2e	.
4G	.	.	.
2F	2r	2d	.
2E	2G	[2c	.
=67	=67	=67	=67
1D	2A	2c]	0r
.	2F	2B-y	.
2C	2G	2c	.
4BB-y	[2B-y	[2d	.
4C	.	.	.
=68	=68	=68	=68
4D	2B-]	4d]	1r
4E	.	4c	.
1F	2A	2c	.
.	1G	1r	2r
2E	.	.	2g
=69	=69	=69	=69
1F	1F	2.c	2a
.	.	.	2f
.	.	4d	.
1r	1r	4e	2g
.	.	4f	.
.	.	[2g	[2b-y
=70	=70	=70	=70
0r	1r	4g]	2b-]
.	.	4f	.
.	.	1f	2a
.	2r	.	1g
.	2c	2e	.
=71	=71	=71	=71
0r	2d	2f	2.f
.	1f	2d	.
.	.	.	4g
.	.	1c	4a
.	.	.	4b-y
.	2e	.	[2cc
=72	=72	=72	=72
2r	1d	0r	2cc]
2G	.	.	2b-y
2A	2c	.	2cc
2F	[2d	.	2a
=73	=73	=73	=73
2G	4d]	1g	2.b-y
.	4c	.	.
1B-y	2d	.	.
.	.	.	4cc
.	2B-y	1f	2dd
2A	2c	.	[2cc
=74	=74	=74	=74
1G	4d	1g	2cc]
.	4G	.	.
.	1d	.	2b-y
2.F	.	1a	2cc
.	2c	.	[2a
4E	.	.	.
=75	=75	=75	=75
2D	1d	2r	2a]
2G	.	2d	2b-y
2C	2c	2e	2g
2F	2A	2c	2a
=76	=76	=76	=76
2.BB-y	1B-y	1.d	2r
.	.	.	2.f
4C	.	.	.
1D	[1A	.	.
.	.	.	4g
.	.	2f	4a
.	.	.	4b-y
=77	=77	=77	=77
1r	1A]	2e	4cc
.	.	.	4dd
.	.	4d	1cc
.	.	4c	.
1G	2r	1d	.
.	2G	.	2b-y
=78	=78	=78	=78
1D	2A	2r	1a
.	2F	2d	.
1C	[1G	2e	2r
.	.	2c	2g
=79	=79	=79	=79
1BB-y	2G]	1.d	2b-y
.	2B-y	.	2.f
1D	2A	.	.
.	.	.	4g
.	4G	2f	4a
.	4F	.	4b-y
=80	=80	=80	=80
1C	1.G	2e	4cc
.	.	.	4b-y
.	.	4d	4g
.	.	4c	4a
2G	.	1d	2b-y
[2G	2B-y	.	[2g
=81	=81	=81	=81
4G]	2A	[0cl	4g]
4D	.	.	4f
2F	4G	.	1f
.	4F	.	.
1C	1G	.	.
.	.	.	2e
=82	=82	=82	=82
0Fl	0Fl	0c]	0fl
==	==	==	==
*-	*-	*-	*-
!!!system-decoration: s1,s2,s3,s4
!!!RDF**kern: i = editorial accidental
!!!RDF**kern: l = terminal long
!!!ENC: David Nivarlet
!!!END: 2026/03/01
!!!EED: Benjamin Ory
!!!EEV: 2026/03/05
!!!YEC: Copyright 2026 Benjamin Ory, All Rights Reserved
!!!ONB: Translated from MusicXML on 2026/03/05